X: 29596
T: Nordraflur
R: reel
M: 4/4
K: Dmajor
|:A,|DFAd B2BA|dcde fed2|A,CE^G AcBA|ceAc eAGE|
DFAd B2BA|dcde fedA|BdBG FdAD|GECE D3:|
|:G|FDA,D FDAF|Gged cAGE|FDA,D FDdF|GECE D3:|

